app/images/markers/numbered/5.svg

<svg height="46" viewBox="0 0 40 46" width="40" xmlns="http://www.w3.org/2000/svg"><g fill="none" fill-rule="evenodd"><path d="m20 46.037c1.732 0 3.412-6.257 5.015-6.67 8.618-2.227 14.985-10.054 14.985-19.367 0-11.046-8.954-20-20-20s-20 8.954-20 20c0 9.318 6.372 17.147 14.996 19.37 1.6.41 3.276 6.667 5.004 6.667z" fill="#000" fill-rule="nonzero"/><path d="m20 46.037c1.732 0 3.412-6.257 5.015-6.67 8.618-2.227 14.985-10.054 14.985-19.367 0-11.046-8.954-20-20-20s-20 8.954-20 20c0 9.318 6.372 17.147 14.996 19.37 1.6.41 3.276 6.667 5.004 6.667z" fill="#00a862"/><g transform="translate(11 8)"><path d="m17.688 2.35c-.108-.46-.587-1.65-1.5-1.65h-14.378c-.912 0-1.39 1.19-1.503 1.682l-.295 1.634c-.033.188.018.38.14.527.122.146.302.23.493.23h.824l1.158 16.44c.06.962.863 1.715 1.83 1.715h9.09c.967 0 1.77-.753 1.83-1.71l1.156-16.445h.826c.192 0 .372-.084.494-.23s.173-.34.14-.527l-.302-1.666z" fill="#fff" fill-rule="nonzero"/><path d="m6.1594629 16.9619141v-1.3647461c.79980869.3089208 1.46630593.4633789 1.99951172.4633789.53743758 0 .96378423-.1597478 1.27905273-.4792481.31526851-.3195003.47290039-.7521945.47290039-1.2980957 0-1.3457098-.96694996-2.0185547-2.9008789-2.0185547-.22851677 0-.45703011.0190428-.68554688.0571289v-4.71630855h5.39550784v1.48535156h-4.02441409l-.09521484 2.02490239c1.35417344 0 2.41104763.2771782 3.17065433.8315429.7596066.5543648 1.1394043 1.3287711 1.1394043 2.3232422 0 .9182989-.3321907 1.6419245-.9965821 2.1708984-.6643913.528974-1.57421294.7934571-2.72949216.7934571-.49088787 0-1.16584857-.0909822-2.02490234-.2729492z" fill="#4a4a4a"/></g></g></svg>

<?xml version="1.0" encoding="UTF-8"?>
<svg width="40px" height="46px" viewBox="0 0 40 46" version="1.1" xmlns="http://www.w3.org/2000/svg" xmlns:xlink="http://www.w3.org/1999/xlink">
    <!-- Generator: Sketch 47.1 (45422) - http://www.bohemiancoding.com/sketch -->
    <title>starbucks-marker</title>
    <desc>Created with Sketch.</desc>
    <defs></defs>
    <g id="Page-1" stroke="none" stroke-width="1" fill="none" fill-rule="evenodd">
        <g id="starbucks-marker">
            <g id="Group">
                <g id="b-link">
                    <g id="b">
                        <g id="path-1-link" fill-rule="nonzero" fill="#000000">
                            <path d="M20,46.037 C21.732,46.037 23.412,39.78 25.015,39.367 C33.633,37.14 40,29.313 40,20 C40,8.954 31.046,0 20,0 C8.954,0 0,8.954 0,20 C0,29.318 6.372,37.147 14.996,39.37 C16.596,39.78 18.272,46.037 20,46.037 Z" id="path-1"></path>
                        </g>
                        <g id="path-1-link" fill="#00A862">
                            <path d="M20,46.037 C21.732,46.037 23.412,39.78 25.015,39.367 C33.633,37.14 40,29.313 40,20 C40,8.954 31.046,0 20,0 C8.954,0 0,8.954 0,20 C0,29.318 6.372,37.147 14.996,39.37 C16.596,39.78 18.272,46.037 20,46.037 Z" id="path-1"></path>
                        </g>
                    </g>
                </g>
            </g>
            <g id="Group" transform="translate(11.000000, 8.000000)">
                <g id="d-link">
                    <path d="M17.688,2.35 C17.58,1.89 17.101,0.7 16.188,0.7 L1.81,0.7 C0.898,0.7 0.42,1.89 0.307,2.382 L0.012,4.016 C-0.021,4.204 0.03,4.396 0.152,4.543 C0.274,4.689 0.454,4.773 0.645,4.773 L1.469,4.773 L2.627,21.213 C2.687,22.175 3.49,22.928 4.457,22.928 L13.547,22.928 C14.514,22.928 15.317,22.175 15.377,21.218 L16.533,4.773 L17.359,4.773 C17.551,4.773 17.731,4.689 17.853,4.543 C17.975,4.397 18.026,4.203 17.993,4.016 L17.691,2.35 L17.688,2.35 Z" id="d" fill="#FFFFFF" fill-rule="nonzero"></path>
                    <path d="M6.1594629,16.9619141 L6.1594629,15.597168 C6.95927159,15.9060888 7.62576883,16.0605469 8.15897462,16.0605469 C8.6964122,16.0605469 9.12275885,15.9007991 9.43802735,15.5812988 C9.75329586,15.2617985 9.91092774,14.8291043 9.91092774,14.2832031 C9.91092774,12.9374933 8.94397778,12.2646484 7.01004884,12.2646484 C6.78153207,12.2646484 6.55301873,12.2836912 6.32450196,12.3217773 L6.32450196,7.60546875 L11.7200098,7.60546875 L11.7200098,9.09082031 L7.69559571,9.09082031 L7.60038087,11.1157227 C8.95455431,11.1157227 10.0114285,11.3929009 10.7710352,11.9472656 C11.5306418,12.5016304 11.9104395,13.2760367 11.9104395,14.2705078 C11.9104395,15.1888067 11.5782488,15.9124323 10.9138574,16.4414062 C10.2494661,16.9703802 9.33964446,17.2348633 8.18436524,17.2348633 C7.69347737,17.2348633 7.01851667,17.1438811 6.1594629,16.9619141 Z" id="5" fill="#4A4A4A"></path>
                </g>
            </g>
        </g>
    </g>
</svg>
